X: 24419
T: Low Country Dance, The
R: slip jig
M: 9/8
K: Eminor
G2E G2A F2A|E2B B2A BGE|G2E GAB F2A|D2A F2A AFD:|
G2d dBd B2A|GAB E2B BGE|1 G2d dBd B2A|
GAB D2A AFD:|2 dBd ~c3 B2A|GAB D2A AFD||
G2c B2A G2B|E2B G2B BGE|G2c Bcd F2E|D2A F2A AFD:|
BEE B2A G2B|E2B G2B BGE|1 dEE B2A G2A|
D2A F2A AFD:|2 dcB cBA BAG|FGA D2A AFD||

